X: 148
T: Zai chunji In the spring time
%%abc-version 2.0
%%abcx-abcm2ps-target-version 5.9.1 (29 Sep 2008)
%%abc-creator hum2abc beta
%%abcx-conversion-date 2013/10/02 07:44:27
%%abc-edited-by Helmut Schaffrath
%%humdrum-veritas 508002277
%%humdrum-veritas-data 1512689218
%%continueall 1
%%barnumbers 0
L: 1/8
M: 2/4
K: C
A3A [I:setbarnb 1]| 
A2C D | 
E3G | 
E2G,2 | 
A3c | 
A2C D | 
E4- | 
E4 | 
A3A | 
A A C D | 
E3A | 
G,2A,2 | 
D3E | 
G, A, D C | 
A,4- | 
A,4 |]  



